public/svgs/duotone/arrow-up-wide-short.svg

<svg xmlns="http://www.w3.org/2000/svg" viewBox="0 0 576 512"><!-- Font Awesome Pro 6.0.0-alpha2 by @fontawesome - https://fontawesome.com License - https://fontawesome.com/license (Commercial License) --><defs><style>.fa-secondary{opacity:.4}</style></defs><path d="M415.998 288H320C302.326 288 288 302.328 288 320S302.326 352 320 352H415.998C433.672 352 447.998 337.672 447.998 320S433.672 288 415.998 288ZM352 416H320C302.326 416 288 430.328 288 448S302.326 480 320 480H352C369.674 480 384 465.672 384 448S369.674 416 352 416ZM479.998 160H320C302.326 160 288 174.328 288 192S302.326 224 320 224H479.998C497.672 224 511.998 209.672 511.998 192S497.672 160 479.998 160ZM543.998 32H320C302.326 32 288 46.328 288 64S302.326 96 320 96H543.998C561.672 96 575.998 81.672 575.998 64S561.672 32 543.998 32Z" class="fa-secondary"/><path d="M239.591 138.039C251.527 151.086 250.652 171.352 237.623 183.305C224.607 195.25 204.357 194.344 192.404 181.332L160 145.938V447.969C160 465.672 145.671 480 128 480S96 465.672 96 447.969V145.938L63.595 181.332C57.283 188.215 48.658 191.719 39.986 191.719C32.267 191.719 24.517 188.934 18.377 183.305C5.347 171.352 4.472 151.086 16.408 138.039L104.406 41.945C116.531 28.684 139.468 28.684 151.593 41.945L239.591 138.039Z" class="fa-primary"/></svg>

<svg xmlns="http://www.w3.org/2000/svg" viewBox="0 0 576 512"><!--! Font Awesome Pro 6.5.1 by @fontawesome - https://fontawesome.com License - https://fontawesome.com/license (Commercial License) Copyright 2023 Fonticons, Inc. --><defs><style>.fa-secondary{opacity:.4}</style></defs><path class="fa-secondary" d="M288 448c0 17.7 14.3 32 32 32h32c17.7 0 32-14.3 32-32s-14.3-32-32-32H320c-17.7 0-32 14.3-32 32zm0-128c0 17.7 14.3 32 32 32h96c17.7 0 32-14.3 32-32s-14.3-32-32-32H320c-17.7 0-32 14.3-32 32zm0-128c0 17.7 14.3 32 32 32H480c17.7 0 32-14.3 32-32s-14.3-32-32-32H320c-17.7 0-32 14.3-32 32zm0-128c0 17.7 14.3 32 32 32H544c17.7 0 32-14.3 32-32s-14.3-32-32-32H320c-17.7 0-32 14.3-32 32z"/><path class="fa-primary" d="M128 32c9 0 17.5 3.8 23.6 10.4l88 96c11.9 13 11.1 33.3-2 45.2s-33.3 11.1-45.2-2L160 146.3V448c0 17.7-14.3 32-32 32s-32-14.3-32-32V146.3L63.6 181.6c-11.9 13-32.2 13.9-45.2 2s-13.9-32.2-2-45.2l88-96C110.5 35.8 119 32 128 32z"/></svg>
